src/assets/svg/buttonSecondary/icon_arrow.svg

<svg fill="none" height="18" viewBox="0 0 18 18" width="18" xmlns="http://www.w3.org/2000/svg"><path clip-rule="evenodd" d="m14.1381 8.95217-3.1673-3.16734 1.202-1.20208 4.6208 4.62079.6011.60104-.6011.60102-4.6208 4.6208-1.202-1.2021 3.1721-3.1721h-11.14293v-1.70003z" fill="#141515" fill-rule="evenodd"/></svg>

<svg width="18" height="18" viewBox="0 0 18 18" fill="none" xmlns="http://www.w3.org/2000/svg">
<path fill-rule="evenodd" clip-rule="evenodd" d="M14.1381 8.95217L10.9708 5.78483L12.1728 4.58275L16.7936 9.20354L17.3947 9.80458L16.7936 10.4056L12.1728 15.0264L10.9708 13.8243L14.1429 10.6522L2.99997 10.6522L2.99997 8.95217L14.1381 8.95217Z" fill="#141515"/>
</svg>
